X:0
T:Heptatonic Modes on A
L:1/4
M:10/4
K:ALyd
"^Lydian"     A2 Bc de fg a2|a2 gf ed cB A2||
M:10/4
K:A
"^Major"      A2 Bc de fg a2|a2 gf ed cB A2||
M:10/4
K:AMix
"^Mixolydian" A2 Bc de fg a2|a2 gf ed cB A2||
M:10/4
K:ADor
"^Dorian"     A2 Bc de fg a2|a2 gf ed cB A2||
M:10/4
K:AMin
"^Minor"      A2 Bc de fg a2|a2 gf ed cB A2||
M:10/4
K:APhr
"^Phrygian"   A2 Bc de fg a2|a2 gf ed cB A2|]
